X: 42748
T: White Hart, The
R: three-two
M: 3/2
K: Gmajor
G2d2 G2AB cBAG|F2 A4 D2 F2A2|G2d2 G2AB cBAG|D2 G4 D2 F2A2:|
G2g2 f2 ef gfed|f2 A4 D2 F2A2|G2g2 f2 ef gfed|B2 G4 D2 F2A2:|
GABA GABA GABA|f2 G4 D2 F2A2|GABA GABA GABA|g2 G4 D2 F2A2:|
B4 c4 d4|G2AB cBAG F2A2|B4 c4 defd|g2 G4 D2 F2A2:|
B4 c4 d4|G2AB cBAG F2A2|B2d2 c2e2 d2f2|g2 G4 D2 F2A2:|
B2AB c2Bc defd|f2 A4 D2 F2A2|B2d2 c2e2 d2f2|g2 G4 D2 F2A2:|

